X:1
T:Greystone, 76.76 D
T:W. R. Waghorne, 1905
T:Greystone, 76.76 D
T:Public Domain
C:W. R. Waghorne, 1905
Z:Public Domain
%%score ( 1 2 ) ( 3 4 )
L:1/8
M:4/4
K:G
V:1 treble 
V:2 treble 
V:3 bass 
V:4 bass 
V:1
 [DG]2 D2 [DG]2 [CA]2 | [B,B]3 [CA] [DG]2 [=FG]2 | [Ec]2 [Gc]2 ([GB][FA])([GB][Ac]) | [FA]8 | %4
 [DG]2 D2 [DG]2 [CA]2 | [B,B]3 [CA] (DE)(_FE) | [Dd]2 (dc) B2 z C x | [B,G]6 [=FG]2 | %8
 [EG]2 ([CE][D=F]) [EG]2 [FA]2 | [=FA]4 [EG]2 [EG]2 | [Ec]2 ([GB][EA]) [DE]2 [C^F]2 | %11
 [B,G]6 [=FG]2 | [EG]2 ([CE][D=F]) [EG]2 [FA]2 | [=FA]4 [EG]2 [FG]2 | %14
 [EG]2 ([EG][D=F]) [CE]2 [B,D]2 | C8 |] %16
V:2
 x2 D2 x4 | x8 | x8 | x8 | x2 D2 x4 | x4 G2 G2 | x2 E2 D3 A2 | x8 | x8 | x8 | x8 | x8 | x8 | x8 | %14
 x8 | C8 |] %16
V:3
 [B,,G,]2 (D,C,) [B,,G,]2 [A,,F,]2 | [G,,G,]3 [A,,G,] [B,,G,]2 [D,B,]2 | (C,D,)(E,F,) [G,D]2 (DE) | %3
 [D,A,]8 | [G,,B,]2 (D,C,) [B,,G,]2 [A,,F,]2 | [G,,G,]3 [A,,G,] (B,,C,)(D,C,) | %6
 [B,,G,]2 [C,G,]2 [D,G,]2 [D,F,]2 x | [G,,G,]6 [G,,B,]2 | [C,C]2 [C,G,]2 [C,C]2 [=F,C]2 | %9
 (A,3 B,) [C,C]2 [C,C]2 | [A,,C]2 ([B,,D][C,C]) [D,B,]2 [D,A,]2 | [G,,G,]6 [G,,B,]2 | %12
 [C,C]2 [C,G,]2 [C,C]2 [=F,C]2 | (A,G,A,B,) [C,C]2 [D,B,]2 | (CG,) [=F,A,]2 G,2 z F, | [C,E,]8 |] %16
V:4
 x2 F,2 x4 | x8 | C2 C2 x C,2 x | x8 | x2 F,2 x4 | x4 G,2 G,2 | x9 | x8 | x8 | =F,4 x4 | x8 | x8 | %12
 x8 | =F,4 x4 | E,2 x G,3 G,,2 | x8 |] %16

